assets/svg/app/staking-logo-tablet.svg

<svg width="106" height="20" viewBox="0 0 106 20" fill="none" xmlns="http://www.w3.org/2000/svg">
<path d="M33.3208 2.60495C34.326 2.60495 35.1564 3.42304 35.1564 4.41335V5.10226H37.2761V4.19806C37.2761 2.36814 35.659 0.775027 33.8016 0.775027H27.508C25.585 0.775027 24.0116 2.34661 24.0116 4.19806V5.68353C24.0116 7.57804 25.6287 9.10657 27.508 9.10657H33.5612C34.5664 9.10657 35.375 9.92465 35.375 10.915V12.2067C35.375 13.197 34.5664 14.0151 33.5612 14.0151H27.8577C26.8524 14.0151 26.022 13.2185 26.022 12.2282V11.5393H23.9023V12.4435C23.9023 14.2734 25.5194 15.845 27.3769 15.845H34.0201C35.9431 15.845 37.4947 14.2734 37.4947 12.422V10.6997C37.4947 8.80517 35.8994 7.27664 34.0201 7.27664H27.9669C26.9617 7.27664 26.1313 6.45856 26.1313 5.46825V4.41335C26.1313 3.42304 26.9617 2.60495 27.9669 2.60495H33.3208Z" fill="white"/>
<path d="M46.7887 14.1012H44.8219C43.8823 14.1012 43.2704 13.4984 43.2704 12.5727V5.92035H46.8105V4.17653H43.2704V1.61464H41.2818V4.17653H39.2277V5.92035H41.2818V12.8095C41.2818 14.5748 42.6148 15.845 44.363 15.845H46.7887V14.1012Z" fill="white"/>
<path d="M52.4123 14.1012C51.4726 14.1012 50.7296 13.3907 50.7296 12.465V7.57804C50.7296 6.63079 51.4726 5.92035 52.4123 5.92035H57.5476V13.4553C57.5476 13.8644 57.2417 14.1012 56.8702 14.1012H52.4123ZM55.9743 15.845L57.5476 14.5533V15.845H59.5362V4.17653H51.9534C50.227 4.17653 48.741 5.57589 48.741 7.34123V12.7018C48.741 14.4026 50.1833 15.845 51.9534 15.845H55.9743Z" fill="white"/>
<path d="M70.7283 4.17653L64.5878 9.49408V0H62.5992V15.845H64.5878V10.2261L71.2309 15.845H73.9188L66.6419 9.79548L73.3725 4.17653H70.7283Z" fill="white"/>
<path d="M75.7459 4.17653V15.845H77.7345V4.17653H75.7459ZM75.7459 0.322929V2.56189H77.7345V0.322929H75.7459Z" fill="white"/>
<path d="M82.8552 6.5662C82.8552 6.17869 83.1611 5.92035 83.5326 5.92035H88.1435C89.105 5.92035 89.8261 6.63079 89.8261 7.57804V15.845H91.8147V7.34123C91.8147 5.57589 90.3506 4.17653 88.6024 4.17653H84.3848L82.8552 5.42519V4.17653H80.8666V15.845H82.8552V6.5662Z" fill="white"/>
<path d="M98.1875 13.7352C97.2478 13.7352 96.5048 13.0248 96.5048 12.0775V7.57804C96.5048 6.63079 97.2478 5.92035 98.1875 5.92035H103.432V13.0893C103.432 13.4769 103.126 13.7352 102.755 13.7352H98.1875ZM102.23 20C104.022 20 105.421 18.5791 105.421 16.8568V4.17653H97.7286C96.0022 4.17653 94.5162 5.57589 94.5162 7.34123V12.3143C94.5162 14.0366 95.9585 15.479 97.7286 15.479H101.859L103.432 14.1658V16.6846C103.432 17.6103 102.711 18.3208 101.771 18.3208H98.6901C97.7504 18.3208 97.0293 17.6103 97.0293 16.6846V16.3617H95.0626V16.8784C95.0626 18.6222 96.5267 20 98.2749 20H102.23Z" fill="white"/>
<g clip-path="url(#clip0)">
<path d="M4.81264 4.73154C4.67337 4.56603 4.5019 4.48307 4.29786 4.48307H0.125042C0.0879789 4.48307 0.0576543 4.47089 0.0348172 4.44651C0.0116057 4.42253 0 4.3954 0 4.36631V1.44489C0 1.4158 0.0116057 1.38906 0.0348172 1.36469C0.0576543 1.34031 0.0879789 1.32812 0.125042 1.32812H4.53447C5.64713 1.32812 6.60703 1.80068 7.41382 2.745L8.48491 4.1033L6.3985 6.74717L4.81264 4.73154ZM12.5188 2.73046C13.3256 1.79557 14.29 1.32812 15.412 1.32812H19.8076C19.8447 1.32812 19.8724 1.33795 19.8911 1.35722C19.9094 1.37687 19.9188 1.40597 19.9188 1.44489V4.36631C19.9188 4.3954 19.9094 4.42253 19.8911 4.44651C19.8724 4.47089 19.8447 4.48307 19.8076 4.48307H15.6348C15.4308 4.48307 15.2593 4.56603 15.12 4.73154L12.046 8.61694L15.1339 12.5314C15.2731 12.6875 15.4397 12.7654 15.6348 12.7654H19.8076C19.8447 12.7654 19.8724 12.7775 19.8911 12.8019C19.9094 12.8263 19.9188 12.8581 19.9188 12.8967V15.8181C19.9188 15.8472 19.9094 15.8743 19.8911 15.8983C19.8724 15.9227 19.8447 15.9349 19.8076 15.9349H15.412C14.29 15.9349 13.3301 15.4627 12.5327 14.518L9.97344 11.2754L7.41382 14.518C6.60703 15.4627 5.64263 15.9349 4.52062 15.9349H0.125042C0.0879789 15.9349 0.0599006 15.9227 0.041556 15.8983C0.0228371 15.8739 0.013852 15.8425 0.013852 15.8032V12.8817C0.013852 12.8526 0.0228371 12.8259 0.041556 12.8015C0.0599006 12.7772 0.0879789 12.765 0.125042 12.765H4.29786C4.49254 12.765 4.66401 12.6824 4.81264 12.5165L7.83087 8.68967L12.5188 2.73046Z" fill="#00D1FF"/>
</g>
<defs>
<clipPath id="clip0">
<rect width="19.9188" height="14.6071" fill="white" transform="translate(0 1.32812)"/>
</clipPath>
</defs>
</svg>

<svg width="106" height="20" fill="none" xmlns="http://www.w3.org/2000/svg">
    <path d="M33.32 2.605c1.006 0 1.836.818 1.836 1.808v.69h2.12v-.905c0-1.83-1.617-3.423-3.474-3.423h-6.294c-1.923 0-3.496 1.572-3.496 3.423v1.486c0 1.894 1.617 3.423 3.496 3.423h6.053c1.005 0 1.814.818 1.814 1.808v1.292c0 .99-.809 1.808-1.814 1.808h-5.703c-1.006 0-1.836-.796-1.836-1.787v-.689h-2.12v.905c0 1.83 1.617 3.401 3.475 3.401h6.643c1.923 0 3.475-1.572 3.475-3.423V10.7c0-1.895-1.596-3.423-3.475-3.423h-6.053c-1.005 0-1.836-.818-1.836-1.809V4.413c0-.99.83-1.808 1.836-1.808h5.354Zm13.469 11.496h-1.967c-.94 0-1.552-.603-1.552-1.528V5.92h3.54V4.177h-3.54V1.615h-1.988v2.562h-2.054V5.92h2.054v6.89c0 1.765 1.333 3.035 3.081 3.035h2.426v-1.744Zm5.623 0c-.94 0-1.682-.71-1.682-1.636V7.578c0-.947.743-1.658 1.682-1.658h5.136v7.535c0 .41-.306.646-.678.646h-4.458Zm3.562 1.744 1.574-1.292v1.292h1.988V4.177h-7.583c-1.726 0-3.212 1.399-3.212 3.164v5.36c0 1.702 1.442 3.144 3.212 3.144h4.021ZM70.728 4.177l-6.14 5.317V0h-1.989v15.845h1.989v-5.619l6.643 5.619h2.688l-7.277-6.05 6.73-5.618h-2.644Zm5.018 0v11.668h1.989V4.177h-1.99Zm0-3.854v2.239h1.989V.322h-1.99Zm7.109 6.243c0-.387.306-.646.678-.646h4.61c.962 0 1.683.71 1.683 1.658v8.267h1.989V7.341c0-1.765-1.464-3.164-3.213-3.164h-4.217l-1.53 1.248V4.177h-1.988v11.668h1.988V6.566Zm15.333 7.169c-.94 0-1.683-.71-1.683-1.657v-4.5c0-.947.743-1.658 1.683-1.658h5.244v7.17c0 .387-.306.645-.677.645h-4.567ZM102.23 20c1.792 0 3.191-1.42 3.191-3.143V4.177h-7.692c-1.727 0-3.213 1.399-3.213 3.164v4.973c0 1.723 1.442 3.165 3.213 3.165h4.13l1.573-1.313v2.519c0 .925-.721 1.636-1.661 1.636h-3.08c-.94 0-1.662-.71-1.662-1.636v-.323h-1.966v.516c0 1.744 1.464 3.122 3.212 3.122h3.955Z" fill="#fff"/>
    <g clip-path="url(#a)">
        <path d="M4.813 4.732a.648.648 0 0 0-.515-.249H.125a.118.118 0 0 1-.09-.036.113.113 0 0 1-.035-.08V1.444c0-.03.012-.056.035-.08a.118.118 0 0 1 .09-.037h4.41c1.112 0 2.072.473 2.879 1.417l1.07 1.358L6.4 6.747 4.813 4.732Zm7.706-2.002c.807-.934 1.771-1.402 2.893-1.402h4.396c.037 0 .064.01.083.03.018.019.028.048.028.087v2.921a.13.13 0 0 1-.028.08c-.019.025-.046.037-.083.037h-4.173a.648.648 0 0 0-.515.249l-3.074 3.885 3.088 3.914a.65.65 0 0 0 .5.234h4.174c.037 0 .064.012.083.037a.154.154 0 0 1 .028.095v2.921a.13.13 0 0 1-.028.08c-.019.025-.046.037-.083.037h-4.396c-1.122 0-2.082-.472-2.88-1.417l-2.559-3.243-2.56 3.243c-.806.945-1.77 1.417-2.892 1.417H.125c-.037 0-.065-.012-.083-.037a.151.151 0 0 1-.028-.095v-2.921c0-.03.009-.056.028-.08.018-.025.046-.037.083-.037h4.173a.674.674 0 0 0 .515-.248L7.83 8.69l4.688-5.96Z" fill="#00D1FF"/>
    </g>
    <defs>
        <clipPath id="a">
            <path fill="#fff" transform="translate(0 1.328)" d="M0 0h19.919v14.607H0z"/>
        </clipPath>
    </defs>
</svg>
